!!!COM: Vivaldi, Antonio
!!!CDT: 1678/03/04/-1741/07/27/
!!!OTL: Concerto in E-flat Major, Op. 6, No. 2
!!!OMV: No. 2
!!!OMD: Largo
**kern	**fb	**dynam	**kern	**dynam
*staff2	*	*	*staff1	*
*Icello	*	*	*Ivioln	*
*clefF4	*	*	*clefG2	*
*k[b-e-]	*	*	*k[b-e-]	*
*M3/4	*	*	*M3/4	*
*MM52	*	*	*MM52	*
=1-	=1-	=1-	=1-	=1-
2.r	.	.	4cc\	mf
.	.	.	4ee-\	.
.	.	.	4gg\	.
=2	=2	=2	=2	=2
4C/	.	p	[2.aa-\	.
4F\	.	.	.	.
4A-\	.	.	.	.
=3	=3	=3	=3	=3
4BBn/	.	.	4aa-\]	.
2BB-/	.	.	8gg\L	.
.	.	.	8ff\	.
.	.	.	8ee-\	.
.	.	.	8dd\J	.
=4	=4	=4	=4	=4
4AA/	.	.	4cc\	.
2AA-/	.	.	8ff\L	.
.	.	.	8ee-\	.
.	.	.	8dd\	.
.	.	.	8cc\J	.
=5	=5	=5	=5	=5
4GG/	.	.	4cc\	.
4D\	.	.	4bn\	.
4G\	.	.	4r	.
=6	=6	=6	=6	=6
2.BB-/	.	.	4een\	.
.	.	.	4gg\	.
.	.	.	4ccc\	.
=7	=7	=7	=7	=7
2.AA-/	.	.	8ff\L	.
.	.	.	8ccc\	.
.	.	.	8bb-\	.
.	.	.	8aa-\	.
.	.	.	8gg\	.
.	.	.	8ff\J	.
=8	=8	=8	=8	=8
2.BB-/	.	.	4dd\	.
.	.	.	4ff\	.
.	.	.	4bb-\	.
=9	=9	=9	=9	=9
2.GG/	.	.	8ee-\L	.
.	.	.	8bb-\	.
.	.	.	8aa-\	.
.	.	.	8gg\	.
.	.	.	8ff\	.
.	.	.	8ee-\J	.
=10	=10	=10	=10	=10
2.FF/	.	.	8dd-\L	.
.	.	.	8aa-\	.
.	.	.	8gg\	.
.	.	.	8ff\	.
.	.	.	8ee-\	.
.	.	.	8dd-\J	.
=11	=11	=11	=11	=11
2.EE-/	.	.	8cc\L	.
.	.	.	8gg\	.
.	.	.	8ff\	.
.	.	.	8ee-\	.
.	.	.	8dd\	.
.	.	.	8cc\J	.
=12	=12	=12	=12	=12
2DD/	.	.	4.ff#\	.
.	.	.	8dd\	.
4BB-/	.	.	8gg\L	.
.	.	.	8dd\J	.
=13	=13	=13	=13	=13
4C/	.	.	8bb-\L	.
.	.	.	8gg\J	.
4D\	.	.	4.ff#\	.
4DD/	.	.	.	.
.	.	.	8gg\	.
=14	=14	=14	=14	=14
2G\	.	.	4gg\	.
.	.	.	2aa-\	.
4F\	.	.	.	.
=15	=15	=15	=15	=15
4d-\	.	.	4bb-\	.
4c\	.	.	4ccc\	.
4B-\	.	.	4ddd-\	.
=16	=16	=16	=16	=16
2c\	.	.	4een\	.
.	.	.	4ccc\	.
4B-\	.	.	4ee\	.
=17	=17	=17	=17	=17
[2.A-\	.	.	4ff\	.
.	.	.	4aa-\	.
.	.	.	4ccc\	.
=18	=18	=18	=18	=18
2A-\]	.	.	4.dd\	.
.	.	.	8b-\	.
4G\	.	.	[4ee-\	.
=19	=19	=19	=19	=19
2.F#\	.	.	4ee-\]	.
.	.	.	4dd\	.
.	.	.	4cc\	.
=20	=20	=20	=20	=20
2.G\	.	.	4b-\	.
.	.	.	4g/	.
.	.	.	4ee-\	.
=21	=21	=21	=21	=21
2.A-\	.	.	8cc\L	.
.	.	.	8aa-\	.
.	.	.	8ff\	.
.	.	.	8ee-\	.
.	.	.	8dd\	.
.	.	.	8cc\J	.
=22	=22	=22	=22	=22
4GG/	.	.	4cc\	.
4D\	.	.	4bn\	.
4G\	.	.	4r	.
=23	=23	=23	=23	=23
2.E-\	.	.	4cc\	.
.	.	.	4ee-\	.
.	.	.	4gg\	.
=24	=24	=24	=24	=24
4F\	.	.	2.aa-\	.
4A-\	.	.	.	.
4c\	.	.	.	.
=25	=25	=25	=25	=25
[2.F\	.	.	4dd-\	.
.	.	.	4ff\	.
.	.	.	4aa-\	.
=26	=26	=26	=26	=26
2F\]	.	.	4.ddd-\	.
.	.	.	8bbn\	.
4E-\	.	.	8ccc\L	.
.	.	.	8gg\J	.
=27	=27	=27	=27	=27
2c\	.	.	4.aa-\	.
.	.	.	(8ff#\	.
4Bn\	.	.	8gg\L	.
.	.	.	8dd\J)	.
=28	=28	=28	=28	=28
8c\L	.	.	8ee-\L	.
8F\J	.	.	8cc\J	.
4G\	.	.	4.bn\	.
4GG/	.	.	.	.
.	.	.	8cc\	.
=29	=29	=29	=29	=29
2.C;/	.	.	2.cc;\	.
==	==	==	==	==
*-	*-	*-	*-	*-
!!!URL-pdf: https://ks15.imslp.org/files/imglnks/usimg/d/d3/IMSLP301346-PMLP487833-Vivaldi_-_VI_Concerti_a_Cinque_Stromenti,_Opera_Sesta_-Violino_Primo_Principale-.pdf#page=10 Violino Primo Principale
!!!ONB: Violino Primo Tacet
!!!ONB: Violino Secondo Tacet
!!!ONB: Alto Viola Tacet
!!!URL-pdf: https://s9.imslp.org/files/imglnks/usimg/9/9d/IMSLP301350-PMLP487833-Vivaldi_-_VI_Concerti_a_Cinque_Stromenti,_Opera_Sesta_-Organo_e_Violoncello-.pdf#page=7 Organo e Violoncello
!!!ENC: Don Anthony
!!!END: 2005/06/10
!!!EED: Craig Stuart Sapp
!!!EEV: 2024/10/03
